packages/core/src/svgs/apefi.svg

<svg width="24" height="24" viewBox="0 0 24 24" fill="none" xmlns="http://www.w3.org/2000/svg">
<g clip-path="url(#clip0_31_5962)">
<path d="M0 0H24V24H0V0Z" fill="url(#paint0_linear_31_5962)"/>
<path d="M10.4314 19.2344C10.6243 17.6786 11.2286 14.2201 12.2357 11.7772C11.5414 12.5658 10.1571 14.5029 10.1571 15.9686C9.81429 15.3558 9.06429 13.8215 8.85857 12.5658C8.60143 13.3501 8.38714 15.2872 9.63857 16.7529L9.12 18.8444L6 17.0144C6.17143 16.7529 6.51857 16.1786 6.51857 15.9686C6.51857 15.7072 6.26143 15.4458 6 15.7072C6.08571 15.0944 6.51857 13.6115 7.56 12.5658V9.68578C7.56 9.42864 7.66286 8.85007 8.07857 8.64007C8.49429 8.43007 9.29143 9.07721 9.63857 9.42436C9.46714 9.33864 9.01286 9.16721 8.59714 9.16721C8.18143 9.16721 8.07857 9.33864 8.07857 9.42436C8.16429 9.8615 8.49429 10.7315 9.12 10.7315C9.74143 10.7315 10.4186 10.0372 10.6757 9.68578C10.6757 9.39864 10.5214 8.83721 9.89571 8.9015C9.98143 8.81578 10.2086 8.64007 10.4186 8.64007C10.6243 8.64007 11.1986 8.8115 11.4557 8.9015C11.5414 8.81578 11.7129 8.53721 11.7129 8.11721C11.7129 7.59436 11.4557 7.0715 10.9371 7.0715C10.6329 7.0715 10.3286 7.33721 10.08 7.56007C9.89571 7.71864 9.74571 7.85578 9.63857 7.85578C9.42857 7.85578 9.03 7.50436 8.85857 7.33293C9.37714 6.45864 10.6243 4.71436 11.4557 4.71436C12.0471 4.71436 12.6386 5.56293 13.1829 6.34293C13.5943 6.93007 13.98 7.47864 14.3143 7.59436C13.8857 7.68007 12.9643 8.06578 12.7543 8.9015C13.0157 8.64007 13.6929 8.11721 14.3143 8.11721C15.0943 8.11721 16.9114 9.16293 16.9114 9.94721C16.9114 10.7315 17.1729 11.5201 17.9529 12.0429C18.36 12.3172 19.0886 12.6044 19.7143 12.8229C19.1455 14.9794 17.7711 16.8355 15.8743 18.0086V15.4458C15.6171 15.5315 14.9914 16.2301 14.5757 18.3215L14.4814 18.7072C13.1938 19.2072 11.8042 19.388 10.4314 19.2344Z" fill="#121111"/>
<path d="M10.0714 8.1431C10.1571 8.05739 10.47 7.85596 10.6757 7.85596C10.8857 7.85596 11.0571 8.05739 11.1428 8.1431H10.0714ZM8.85855 7.85596C8.64855 7.85596 8.57141 8.05739 8.57141 8.1431H9.21427C9.21427 8.05739 9.06427 7.85596 8.85855 7.85596ZM9.42855 8.57167C9.22284 8.57167 8.99998 8.46453 8.99998 8.37881L9.85713 8.35739C9.85713 8.4431 9.63427 8.57167 9.42855 8.57167Z" fill="#121111"/>
</g>
<defs>
<linearGradient id="paint0_linear_31_5962" x1="4.71429" y1="3.85714" x2="18" y2="22.2857" gradientUnits="userSpaceOnUse">
<stop stop-color="#EAE3D2"/>
<stop offset="0.24" stop-color="#CEBC95"/>
<stop offset="0.37" stop-color="#A99367"/>
<stop offset="0.45" stop-color="#AE976A"/>
<stop offset="0.53" stop-color="#B8A070"/>
<stop offset="0.8" stop-color="#E7D9BE"/>
<stop offset="0.97" stop-color="#D7C6A1"/>
</linearGradient>
<clipPath id="clip0_31_5962">
<rect width="24" height="24" fill="white"/>
</clipPath>
</defs>
</svg>

<svg xmlns="http://www.w3.org/2000/svg" width="24" height="24" fill="none" viewBox="0 0 24 24"><g clip-path="url(#a)"><path fill="url(#b)" d="M0 0h24v24H0z"/><path fill="#121111" d="M10.431 19.234c.193-1.555.798-5.014 1.805-7.457-.695.789-2.079 2.726-2.079 4.192-.343-.613-1.093-2.147-1.298-3.403-.258.784-.472 2.721.78 4.187l-.519 2.091L6 17.014c.171-.261.519-.835.519-1.045 0-.262-.258-.523-.519-.262.086-.613.519-2.096 1.56-3.141v-2.88c0-.257.103-.836.519-1.046.415-.21 1.212.437 1.56.784-.172-.085-.626-.257-1.042-.257s-.518.172-.518.257c.085.438.415 1.308 1.041 1.308.621 0 1.299-.695 1.556-1.046 0-.287-.155-.849-.78-.784.085-.086.313-.262.523-.262.205 0 .78.172 1.037.261.085-.085.257-.364.257-.784 0-.523-.257-1.046-.776-1.046-.304 0-.608.266-.857.49-.184.158-.334.295-.441.295-.21 0-.609-.352-.78-.523.518-.874 1.765-2.619 2.597-2.619.591 0 1.183.849 1.727 1.629.411.587.797 1.136 1.131 1.251-.428.086-1.35.472-1.56 1.308.262-.262.939-.785 1.56-.785.78 0 2.597 1.046 2.597 1.83 0 .785.262 1.573 1.042 2.096.407.274 1.136.561 1.761.78a8.7 8.7 0 0 1-3.84 5.186v-2.563c-.257.085-.883.784-1.298 2.876l-.095.385a8.56 8.56 0 0 1-4.05.527"/><path fill="#121111" d="M10.071 8.143c.086-.086.399-.287.605-.287.21 0 .381.201.467.287zM8.86 7.856c-.21 0-.288.201-.288.287h.643c0-.086-.15-.287-.355-.287m.57.716c-.206 0-.429-.107-.429-.193l.857-.022c0 .086-.223.215-.428.215"/></g><defs><linearGradient id="b" x1="4.714" x2="18" y1="3.857" y2="22.286" gradientUnits="userSpaceOnUse"><stop stop-color="#EAE3D2"/><stop offset=".24" stop-color="#CEBC95"/><stop offset=".37" stop-color="#A99367"/><stop offset=".45" stop-color="#AE976A"/><stop offset=".53" stop-color="#B8A070"/><stop offset=".8" stop-color="#E7D9BE"/><stop offset=".97" stop-color="#D7C6A1"/></linearGradient><clipPath id="a"><path fill="#fff" d="M0 0h24v24H0z"/></clipPath></defs></svg>
